ir/collapse.svg

<svg stroke-width="1.5" viewBox="0 0 24 24" fill="none" xmlns="http://www.w3.org/2000/svg" height="1em" width="1em">
  <path d="m20 20-5-5m0 0v4m0-4h4M4 20l5-5m0 0v4m0-4H5M20 4l-5 5m0 0V5m0 4h4M4 4l5 5m0 0V5m0 4H5" stroke="currentColor" stroke-linecap="round" stroke-linejoin="round"/>
</svg>

<svg stroke-width="1.5" viewBox="0 0 24 24" fill="none" xmlns="http://www.w3.org/2000/svg" height="1em" width="1em">
  <path d="M20 20L15 15M15 15V19M15 15H19" stroke="currentColor" stroke-linecap="round" stroke-linejoin="round"/>
  <path d="M4 20L9 15M9 15V19M9 15H5" stroke="currentColor" stroke-linecap="round" stroke-linejoin="round"/>
  <path d="M20 4L15 9M15 9V5M15 9H19" stroke="currentColor" stroke-linecap="round" stroke-linejoin="round"/>
  <path d="M4 4L9 9M9 9V5M9 9H5" stroke="currentColor" stroke-linecap="round" stroke-linejoin="round"/>
</svg>
